X:1
T:Title
%%score ( 1 2 3 4 )
L:1/8
Q:1/4=120
M:4/4
K:G
V:1 treble nm="Part_1"
V:2 treble 
V:3 treble 
V:4 treble 
V:1
 (6:4:4z!mf! GG-!p!G G2 G x7/3 | F2 A2 z D2 x | z2 (6:4:1B,(6:4:1D-(6:4:2!>!D D2 !^!B, x5/3 | %3
 (6:4:2A,2 D2 z z2 x7/3 | (6:4:1z2 (6:4:3GG- z (6:4:2G G (6:4:1G2 x2 | F2 A2 z z3/2 z x/ | %6
 z2 (6:4:1B,(6:4:3D-D D2 x8/3 | A,2 (6:4:1B,2 x14/3 | z2 (6:4:2EG- (6:4:1z (6:4:2G G2 x2 | %9
 (6:4:2z z z z3/2 G2 x13/6 | (6:4:1z2 (6:4:3F!>(!A-!>)!A (6:4:1A2 x10/3 | B2 A2 G2 z2 | %12
 (6:4:3z2 EG- (6:4:2GG (6:4:1E2 x8/3 | z (6:4:2G2 z x5 | z2 F(6:4:4A-A A2 z (6:4:1G x | %15
 z A2 !>!G2 z2 x17 | z2 z!>(! B z3/2!>)! BA G2 | E2 z2 z4 | z (6:4:5z B- .BA G2 x3 | A2 z2 z4 | %20
 z z!>(! B!>)! B A G2 x | (6:4:1z (6:4:3z E D2 x2/3 (6:4:1z (6:4:1G2 x2 | %22
 (6:4:1E (6:4:1D2 x4/3 G2 x8/3 | z x7 | z B- (6:4:1z (6:4:2!tenuto!BG x4 | %25
 (6:4:1z (6:4:1E2 (6:4:3GG- G (6:4:1E (6:4:1A2 x2 | z3 A- z3/2 (6:4:2A A2 x/ | %27
 B2 (6:4:5AG- G B z G2 x337/24 | z3!ped! B- BA G2 | !>!E z3/2 D2 x z x2 | %30
 (6:4:4E D2 x85/64 G2 x10/3 x29/64 | z z2 x5 | z x7 | z8 | z x7 | E8 |] %36
V:2
 (6:4:1z2 x20/3 | x4 G2 x2 | x2 (6:4:1z x4/3 (6:4:2z z (6:4:1z x2 | x8/3 B,2 x10/3 | %4
 x4/3 (6:4:1z x2/3 (6:4:1z x2/3 z (6:4:1z x7/3 | x4 z x D2 | x2 z x2/3 (6:4:1B, x11/3 | %7
 z!p! (6:4:1!>!D2 z2 x11/3 | x2 (6:4:1z x2 (6:4:1z (6:4:1E x2 | (6:4:1D2 x2/3 z z x4 | %10
 x4/3 (6:4:1z x4/3 z (6:4:1G x3 | x8 | x4 (6:4:1z x10/3 | D2 (6:4:1z x16/3 | x3 (6:4:1z x13/3 | %15
 B2 z x21 | x3 z x11/2 | x8 | z2 x6 | x8 | z2 x2 z x3 | x2 (6:4:1z (6:4:3B- B A x10/3 | %22
 x2/3 (6:4:3z !^!B- B(6:4:1A x14/3 | B8 | z3 (6:4:1A2 x11/3 | x8 | x3 z x13/6 (6:4:2z G x/ | %27
 G,,16 x43/8 | x6 z x | x5/2 z B- BA G2 | x2/3 (6:4:1z (6:4:2B- .B(6:4:2A z x4 | G2 z4 x2 | z x7 | %33
 x8 | z x7 | x8 |] %36
V:3
 x8 | x8 | x8 | x8/3 (6:4:1F,,8 | x14/3 (6:4:1z x8/3 | x4 G2 x2 | x8/3 (6:4:1z x/3 (6:4:1z x11/3 | %7
 x z (6:4:1TF,,8 x2/3 | x16/3 (6:4:1z x2 | x2/3 (6:4:1G2 D2 x4 | x8 | x8 | x4 (6:4:1z x10/3 | %13
 x z3/2 (6:4:1G2 x25/6 | x8 | !arpeggio!E,24 | x19/2 | x8 | x8 | x8 | x8 | x8 | x4/3 (6:4:1z x6 | %23
 x8 | x z x z x4 | x8 | x41/6 (6:4:1z x/ | x4 (6:4:1z x2/3 G,,16 | x8 | x7/2 z3/2 x7/2 | x8 | x8 | %32
 x8 | x8 | x8 | x8 |] %36
V:4
 x8 | x8 | x8 | x8 | x8 | x8 | x8 | x8 | x8 | x8 | x8 | x8 | x8 | x7/3 (6:4:1D2 x13/3 | x8 | %15
 z z x22 | x19/2 | x8 | x8 | x8 | x8 | x8 | x8 | x8 | x3 (6:4:1z x13/3 | x8 | x8 | x171/8 | x8 | %29
 x17/2 | x8 | x8 | x8 | x8 | x8 | x8 |] %36

